X: 7836
T:Smedens Anders Skottish
R:Schottische
O:Denmark
M:4/4
K:G
D>G B>A G2G2|B>d g>B d2g2| f>g a>f d2e>f \
|1 g>f g>e d2z2 :|2 g>d B>d G2z2 :|
|:\
e3f g2f>e|d>e d>B G2B2|\
A>B A>F D2E>F|G>F G>B d2z2|
e3f a>g f>e|d>e d>B G2B2 |\
A>B A>F D2E>F|G2G2G2 :|
